X: 34216
T: Reel St Joseph
R: reel
M: 4/4
K: Dmajor
Bc|:d2d2 cdec|defd Addc|B2gf edcB|Aaag aABc|
d2d2 cdec|defd Addc|B2gf edcB|1 ~A2Bc d2Bc:|2 ~A2Bc d2e2||
|:f3g fed=c|Bggf g2Bc|e2ef edcB|Aaag a2ce|
f3g fed=c|Bggf g2Bc|e2ef edcB|1 ~A2Bc d2de:|2 ~A2Bc d2Bc||

